udata_front/theme/gouvfr/templates/svg/private.svg

<svg fill="none" viewBox="0 0 18 18" xmlns="http://www.w3.org/2000/svg"><path d="m17.5 9.00068c0 4.69402-3.8055 8.49932-8.5 8.49932-4.69451 0-8.5-3.8053-8.5-8.49932 0-4.69411 3.80622-8.50068 8.50068-8.50068 4.69432 0 8.49932 3.80647 8.49932 8.50068z" fill="#999" stroke="#fff"/><path d="m12.0312 8.0625h-.4218v-1.26562c0-1.45899-1.2129-2.67188-2.6719-2.67188-1.47656 0-2.67188 1.21289-2.67188 2.67188v1.26562h-.42187c-.47461 0-.84375.38672-.84375.84375v3.37495c0 .4747.36914.8438.84375.8438h6.18745c.4571 0 .8438-.3691.8438-.8438v-3.37495c0-.45703-.3867-.84375-.8438-.84375zm-1.8281 0h-2.53122v-1.26562c0-.68555.5625-1.26563 1.26562-1.26563.68555 0 1.2656.58008 1.2656 1.26563z" fill="#fff"/></svg>

<svg xmlns="http://www.w3.org/2000/svg" fill="none" viewBox="0 0 18 18">
<path d="M17.5 9.00068C17.5 13.6947 13.6945 17.5 9 17.5C4.30549 17.5 0.5 13.6947 0.5 9.00068C0.5 4.30657 4.30622 0.5 9.00068 0.5C13.695 0.5 17.5 4.30647 17.5 9.00068Z" fill="#999999" stroke="white"/>
<path d="M12.0312 8.0625H11.6094V6.79688C11.6094 5.33789 10.3965 4.125 8.9375 4.125C7.46094 4.125 6.26562 5.33789 6.26562 6.79688V8.0625H5.84375C5.36914 8.0625 5 8.44922 5 8.90625V12.2812C5 12.7559 5.36914 13.125 5.84375 13.125H12.0312C12.4883 13.125 12.875 12.7559 12.875 12.2812V8.90625C12.875 8.44922 12.4883 8.0625 12.0312 8.0625ZM10.2031 8.0625H7.67188V6.79688C7.67188 6.11133 8.23438 5.53125 8.9375 5.53125C9.62305 5.53125 10.2031 6.11133 10.2031 6.79688V8.0625Z" fill="white"/>
</svg>
